X:417
T:Angus Polka No.2
T:Cameron Men's Polka No.2
D:Boys of the Lough, Farewell and Remember Me
Z:Nigel Gatherer
N:Transposed down an octave
M:2/4
L:1/16
K:A
E2c2 c3B  | A2F2 F3A  | E2A2 AGAB | c2B2 B3z  |
E2c2 c3B  | A2F2 F3A  | E2A2 BABc | B2A2 A3z :|
C2E2 EFED | C2E2 EFED | C2E2 A2c2 | BABc B2E2 |
C2E2 EFED | C2E2 E3A  | F2A2 G2B2 | c2A2 A3z :|
<end>
<start>
